svgs/sharp-regular/bowl-spoon.svg

<svg xmlns="http://www.w3.org/2000/svg" viewBox="0 0 512 512"><!--! Font Awesome Pro 6.6.0 by @fontawesome - https://fontawesome.com License - https://fontawesome.com/license (Commercial License) Copyright 2024 Fonticons, Inc. --><path d="M112 144c-42.6 0-64-28.2-64-48s21.4-48 64-48l64 0 0 48 0 48-64 0zM112 0C50.1 0 0 43 0 96s50.1 96 112 96l64 0 48 0 0-48 0-24 264 0 24 0 0-48-24 0L224 72l0-24 0-48L176 0 112 0zm64 443.1l-26.7-13.2c-55.1-27.3-93.9-82.4-97.8-147.5L50.9 272l410.2 0-.6 10.3c-3.8 65.1-42.7 120.3-97.8 147.5L336 443.1l0 20.9-160 0 0-20.9zM2.8 272l.8 13.2C8.5 368.1 58 438.2 128 472.9l0 39.1 48 0 160 0 48 0 0-39.1c70-34.6 119.5-104.8 124.4-187.7l.8-13.2 2.8-48-48.1 0L48.1 224 0 224l2.8 48z"/></svg>

<svg xmlns="http://www.w3.org/2000/svg" viewBox="0 0 512 512"><!--! Font Awesome Pro 6.5.2 by @fontawesome - https://fontawesome.com License - https://fontawesome.com/license (Commercial License) Copyright 2024 Fonticons, Inc. --><path d="M112 144c-42.6 0-64-28.2-64-48s21.4-48 64-48h64V96v48H112zM112 0C50.1 0 0 43 0 96s50.1 96 112 96h64 48V144 120H488h24V72H488 224V48 0H176 112zm64 443.1l-26.7-13.2c-55.1-27.3-93.9-82.4-97.8-147.5L50.9 272H461.1l-.6 10.3c-3.8 65.1-42.7 120.3-97.8 147.5L336 443.1V464H176V443.1zM2.8 272l.8 13.2C8.5 368.1 58 438.2 128 472.9V512h48H336h48V472.9c70-34.6 119.5-104.8 124.4-187.7l.8-13.2 2.8-48H463.9 48.1 0l2.8 48z"/></svg>
